X:1
T:Title
%%score { ( 1 3 ) | 2 }
L:1/8
M:3/4
K:C
V:1 treble nm="Grand Piano"
V:3 treble 
V:2 bass 
V:1
 z2 z2[Q:1/4=104] [EG]2 | [EG]2 [EG]2 [Gc]2 | [GB]2 A2 d2 | c2 c2 [DB]2 | [Ec]4 [Ec]2 | %5
 [Ge]2 [Fd]2 [Ec]2 | d2 c2 A2 | [FA]2 [EG]2 E2 | D4 G2 | [EG]2 [CE]2 [EG]2 | [Ec]2 [EG]2 [Gc]2 | %11
 d2 G2 d2 |[M:2/4] e4 |[M:1/4] e2 |[M:3/4] f2 e2 d2 | c2 [FB]2 [Gc]2 | d2 c2 B2 |[M:2/4] [Ec]4 | %18
[M:1/4] G2 |[M:3/4] c3 G AB | c2 G2 [Ge]2 | d2 c2 [DB]2 | [Ec]4 [EG]2 | A2 A2 c2 | [Ec]2 [EG]2 E2 | %25
 D2 B2 A2 | [G,B,G]4 G2 | B3 B AB | c2 c2 c2 | d3 d cd |[M:2/4] e4 |[M:1/4] e2 |[M:3/4] f2 e2 d2 | %33
 c2 [FB]2 [Gc]2 | d2 c2 B2 |[M:6/4] .[Ec]6 z6 |] %36
V:2
 z2 z2 [C,C]2 | [C,C]2 [C,C]2 [E,C]2 | [F,C]2 [F,CF]2 [F,A,F]2 | [G,E]2 [G,E]2 [G,,G,]2 | %4
 [C,G,]4 [C,G,]2 | [C,C]2 [C,G,]2 [C,G,]2 | [F,A,F]2 [F,A,F]2 [F,CF]2 | [C,C]2 [C,C]2 [E,G,C]2 | %8
 [G,B,]4 [G,B,F]2 | [C,C]2 [C,G,]2 [C,C]2 | [C,G,]2 [C,C]2 [E,C]2 | [B,G]2 [G,B,]2 [G,B,G]2 | %12
[M:2/4] [CG]4 |[M:1/4] [CG]2 |[M:3/4] [B,DG]2 [CG]2[K:bass] [F,A,F]2 | [G,E]2 [D,D]2 [E,C]2 | %16
 [F,A,F]2 [G,E]2 [G,D]2 |[M:2/4] [C,G,]4 |[M:1/4] G,2 |[M:3/4] C3 G, A,B, | C2 G,2 [C,C]2 | %21
 [F,A,F]2 [G,E]2 [G,,G,]2 | [C,G,]4 [C,C]2 | [F,CF]2 [F,CF]2 [F,A,F]2 | [C,G,]2 [C,C]2 [C,G,C]2 | %25
 [D,G,B,]2 [D,G,D]2 [D,^F,C]2 | G,,4 G,2 | [F,G,D]3 [F,G,D] [F,G,D]2 | [E,G,C]2 [E,G,C]2 [E,G,C]2 | %29
 [G,B,G]3 [G,B,G][K:bass] [E,C][G,B,] |[M:2/4][K:treble] [CG]4 |[M:1/4] [CG]2 | %32
[M:3/4] [B,DG]2 [CG]2 [F,A,F]2 | [G,E]2 [D,D]2 [E,C]2 | [F,A,F]2 [G,E]2 [G,D]2 | %35
[M:6/4] .[C,G,]6 z6 |] %36
V:3
 x6 | x6 | x6 | x6 | x6 | x6 | x6 | x6 | x6 | x6 | x6 | x6 |[M:2/4] x4 |[M:1/4] x2 |[M:3/4] x6 | %15
 x6 | x6 |[M:2/4] x4 |[M:1/4] x2 |[M:3/4] x6 | x6 | x6 | x6 | x6 | x6 | x6 | x6 | x6 | x6 | %29
 z2 z2 G2 |[M:2/4] x4 |[M:1/4] x2 |[M:3/4] x6 | x6 | x6 |[M:6/4] x12 |] %36

